assets/images/afrikons/copy.svg

<svg viewBox="0 0 50 50" xmlns="http://www.w3.org/2000/svg"><path d="m0 0h50v50h-50z" fill="none"/><path d="m42.78 24.56v-7.66a7.1 7.1 0 0 0 -7.09-7.08h-11.34a7.09 7.09 0 0 0 -7.08 7.08v26a7.09 7.09 0 0 0 7.08 7.1h11.34a7.1 7.1 0 0 0 7.09-7.09v-9.28h-5.43v9.28a1.66 1.66 0 0 1 -1.66 1.66h-11.34a1.66 1.66 0 0 1 -1.66-1.66v-26a1.66 1.66 0 0 1 1.66-1.65h11.34a1.66 1.66 0 0 1 1.66 1.65v7.66z"/><path d="m34.36 5.43v-5.43h-10.36a16.8 16.8 0 0 0 -16.78 16.77v22h5.43v-22a11.36 11.36 0 0 1 11.35-11.34z"/></svg>

<svg xmlns="http://www.w3.org/2000/svg" viewBox="0 0 50 50"><defs><style>.cls-1{fill:none;}</style></defs><title>copy</title><g id="Layer_2" data-name="Layer 2"><g id="Layer_1-2" data-name="Layer 1"><rect class="cls-1" width="50" height="50"/><path d="M42.78,24.56V16.9a7.1,7.1,0,0,0-7.09-7.08H24.35a7.09,7.09,0,0,0-7.08,7.08v26A7.09,7.09,0,0,0,24.35,50H35.69a7.1,7.1,0,0,0,7.09-7.09V33.63H37.35v9.28a1.66,1.66,0,0,1-1.66,1.66H24.35a1.66,1.66,0,0,1-1.66-1.66v-26a1.66,1.66,0,0,1,1.66-1.65H35.69a1.66,1.66,0,0,1,1.66,1.65v7.66Z"/><path d="M34.36,5.43V0H24A16.8,16.8,0,0,0,7.22,16.77v22h5.43v-22A11.36,11.36,0,0,1,24,5.43Z"/></g></g></svg>
